!!! OTL: Berkowitz382
!!! Chapter: 1
!!! Section: III
!!! Page: 94
!!! Mode: 
!!! Encoder: DJB
**kern
*staff1
*I"Piano
=1-
*clefC3
*k[f#c#g#d#a#e#]
*B:
*M2/4
4r
8r
8f#\
=2
16B/LL
16B/
16B/
16c#/JJ
8d#/L
8B/J
=3
8r
8b\
8a#\L
8g#\J
=4
16f#\LL
16f#\
16f#\
16g#\JJ
8f#\L
8e#\J
=5
16r
16d#\LL
16d#\
16e#\JJ
8d#\L
8c#\J
=6
8r
16B/LL
16c#/JJ
8d#/L
8B/J
=7
8e#\L
8f#\J
4g#\
=8
8r
8f#\
8g#\L
8a#\J
=9
!!linebreak:original
16b\LL
16b\
16b\
16f#\JJ
8b\
8r
==
*-
